X:5
T:Pittengardener's Rant
T:From Harp and Claymore
C: J. Scott Skinner
R:strathspey
M:C
L:1/16
Z: Jason R. Fruit <JasonFruit@gmail.com>
K:D
!f!A,3D DDD2 (3!<(!F2G2A2 (3B2c2!<)!d2 | (3!>(!B2A2G2 (3F2E2!>)!D2 CE3 {FE^D}"_~ in ms"E3.F | A,3D DDD2 (3!<(!F2G2A2 (3B2c2!<)!d2 |1 (3!<(!c2B2A2 (3G2F2!<)!E2 FA,3 D4 :|2 (3!<(!e2f2g2 (3a2b2!<)!c'2 d'd3d2 ||
(c'2 | d'2)d2b2d2 a2d2f2d'2 | (3c2d2e2 (3d2c2B2 cA3!>!A{d'c'^b}"_~ in ms"c'3 | d'2d2b2d2 a2d2f2d'2 | (3e2f2g2 (3a2b2c'2 d'd3d3(c' |
(3 !ff!d'2)d2d2 (3b2d2d2 (3a2d2d2 (3f2d'2d'2 | (3c2d2e2 (3d2c2B2 cA3[AC]3c | {c}!ff!d3D DDD2 (3 !<(!F2G2A2 (3 B2c2!<)!d2 |1 (3 c2B2A2 (3 G2F2E2 FD3 [DA,]2 :|2 (3 e2f2g2 (3 a2b2c'2 d'd3 d4 |]

